X:134
T:Choice of Harlequin. THO5.134, The
T:Choice. THO5.134, The
T:Harlequin. THO5.134
M:6/8
L:1/8
B:Thompson's Complete Collection of 200 Favourite Dances Vol.5
F:https://www.libraryofdance.org/manuals/1780c-Thompson-Compleat-5.pdf
Z:vmp. Peter Dunk 2024
Q:3/8=110
K:A
A2A B2d|c2A B2G|A2d cec|dBG A3:|
|:e2e f2d|f2b g2e|f2g agf|{f}e2d c3|
A2A B2d|c2A B2G|A2d cec|dBG A3:|
W:
W:Right hands across, half round ./.
W:Left hands back again ./:
W:lead down the middle, up again and cast off :/.
W:Hands 6 round :/:

